X:324
T:Dhuloch Cottage 
C:Joe Buchanan's Scottish Tome - Page 099.2
I:099 2
R:March
Z:Carl Allison
L:1/8
M:2/4
K:F
|:A | c3 d cB AG | F2 A2 C F>E | (D2 D>)E FE  FA | G2 G>A G3 A |
| c3 d cB AG | F2 A2 C F>E | D2 B>A FC DE | F2 F>G F2 F>E |
D3 E F>G FD | C>D CA, C FE | D3 E F>E FA | G2 ^B2 c3 A |
c3 d cB AG | F2 A2 C F>E | D2 B>G FC DE | F2 F>G F3 z :|

